!!! OTL: Berkowitz554
!!! Chapter: 1
!!! Section: V
!!! Page: 140
!!! Mode: 
!!! Encoder: DJB
**kern
*staff1
*I"Piano
=1-
*clefF4
*k[]
*C:
*M4/4
4D\
4G\
4G\
4c\
=2
4r
4c\
4B\
4F#\
=3
4r
4G#\
4A\
4Gn\
=4
4r
4G-\
4F\
4C/
=5
4D\
4G\
4c\
4B-\
=6
4r
4G#\
4F#\
4B\
=7
4r
4A\
4B-\
4A-\
=8
4F#\
4E\
4A\
4r
==
*-
